X: 1
T:The Congress Reel  "1998.3"
M:C
L:1/8
Q:80
C:Traditional
S:Reel
K:HP
[| {gAGAG}A2{g}eA{g}BA{g}eA|
{g}Bdgd{g}BA{g}G{d}B|
{gAGAG}A2{g}eA{g}BA{g}eA|  !
{g}BA{g}G{d}B{gAGAG}A2-Ae|
{gAGAG}A2{g}eA{g}BA{g}eA|
{g}Bdgd{g}BA{g}G{d}B|  !
{gAGAG}A2{g}eA{g}BA{g}eA|
{g}BA{g}G{d}B{gAGAG}A2-Ag|] [|
{ag}a2ea{g}ag{a}ef|  !
{a}gB{gBeBG}B2{gf}g2{a}fg|
{ag}a2ea{g}ag{a}ed|
{gBd}B2{e}GA{g}BA{gAGAG}A2|  !
{ag}a2ea{g}ag{a}ef|
{a}gB{gBeBG}B2{gf}g2{a}fg|
af{a}ge{g}fd{g}ed|  !
{gBd}B2{e}GA{g}BA{gAGAG}A2|]
